X: 7
T: Blue Bonnets Over The Border
R: jig
M: 6/8
L: 1/8
K: Dmaj
D |: "G"Gz2 "C"G3 | "G"GBA G2D | "C"G>EE E2d | "Em"edB "D7"A>BA |
"G"Gz2 "C"G3 | "G"GBA G2D | "C"G>FE "G"D2D | "Em"EGB "D7"A2G :|
|: "G"G>Bd dBG | "C"edB "G"BAG | "G"G>Bd "Em"efg | "Am"G>AB "D7"A2G |
"G"G>Bd dBG | "C"edB "G"BAG | "C"G>FE "G"D2D | "Em"EGB "D7"A3 :|


Tune 2402	Setting 12134

